src/components/atoms/Icon/icons/care-regular.svg

<svg width="24" height="24" xmlns="http://www.w3.org/2000/svg" xmlns:xlink="http://www.w3.org/1999/xlink"><defs><path d="M16 0H2C.9 0 .01.9.01 2L0 16c0 1.1.9 2 2 2h14c1.1 0 2-.9 2-2V2c0-1.1-.9-2-2-2zm-1 11h-4v4H7v-4H3V7h4V3h4v4h4v4z" id="care-regular-a"/><path id="care-regular-c" d="M0 0h24v24H0z"/></defs><g transform="translate(3 3)" fill="none" fill-rule="evenodd"><mask id="care-regular-b" fill="#fff"><use xlink:href="#care-regular-a"/></mask><use fill="#000" fill-rule="nonzero" xlink:href="#care-regular-a"/><g mask="url(#care-regular-b)"><use fill="currentcolor" xlink:href="#care-regular-c" transform="translate(-3 -3)"/></g></g></svg>

<?xml version="1.0" encoding="UTF-8"?>
<svg width="24px" height="24px" viewBox="0 0 24 24" version="1.1" xmlns="http://www.w3.org/2000/svg" xmlns:xlink="http://www.w3.org/1999/xlink">
    <!-- Generator: Sketch 52.5 (67469) - http://www.bohemiancoding.com/sketch -->
    <title>icon/Care</title>
    <desc>Created with Sketch.</desc>
    <defs>
        <path d="M16,0 L2,0 C0.9,0 0.01,0.9 0.01,2 L0,16 C0,17.1 0.9,18 2,18 L16,18 C17.1,18 18,17.1 18,16 L18,2 C18,0.9 17.1,0 16,0 Z M15,11 L11,11 L11,15 L7,15 L7,11 L3,11 L3,7 L7,7 L7,3 L11,3 L11,7 L15,7 L15,11 Z" id="care-regular-path-1"></path>
        <rect id="care-regular-path-3" x="0" y="0" width="24" height="24"></rect>
    </defs>
    <g id="icon/Care" stroke="none" stroke-width="1" fill="none" fill-rule="evenodd">
        <g transform="translate(3.000000, 3.000000)">
            <mask id="care-regular-mask-2" fill="white">
                <use xlink:href="#care-regular-path-1"></use>
            </mask>
            <use id="Mask" fill="#000000" fill-rule="nonzero" xlink:href="#care-regular-path-1"></use>
            <g id="Color/Slate-base" mask="url(#care-regular-mask-2)">
                <g transform="translate(-3.000000, -3.000000)">
                    <mask id="care-regular-mask-4" fill="white">
                        <use xlink:href="#care-regular-path-3"></use>
                    </mask>
                    <use id="Slate-base" stroke="none" fill="currentcolor" fill-rule="evenodd" xlink:href="#care-regular-path-3"></use>
                </g>
            </g>
        </g>
    </g>
</svg>
